X:1
T:Peterborough (Monk), SM
T:Peterborough (Monk), SM
T:William Henry Monk, 1868
T:Public Domain Courtesy of the Cyber Hymnal™
C:William Henry Monk, 1868
Z:Public Domain
Z:Courtesy of the Cyber Hymnal™
%%score 1 ( 2 3 )
L:1/8
Q:1/4=115
M:4/4
K:C
V:1 treble 
V:2 bass 
V:3 bass 
V:1
 [EG]2 | [FA]2 [Gc]2 [Fc]2 [FB]2 | [Ec]6 [Ec]2 | [Gd]2 [Dd]2 [Ec]2 [DA]2 | [DG]6 [DG]2 | %5
 [FA]2 [FA]2 [Gc]2 [Ec]2 | [Gd]2 [Ad]2 [^Ge]2 [=Ge]2 | [Gd]2 [Gc]2 [Fc]2 [DB]2 | [Ec]6 |] %9
V:2
 [C,C]2 | [F,C]2 [E,C]2 [D,A,]2 G,2 | [C,G,]6 [A,C]2 | [G,B,]2 [B,,G,]2 [C,G,]2 [D,^F,]2 | %4
 G,6 [G,B,]2 | [F,C]2 [F,C]2 [E,C]2 [A,C]2 | [G,B,]2 [F,A,]2 [E,B,]2 [C,C]2 | %7
 [G,B,]2 [E,C]2 [F,A,]2 G,2 | [C,G,]6 |] %9
V:3
 x2 | x6 G,2 | x8 | x8 | G,6 x2 | x8 | x8 | x6 G,2 | x6 |] %9

